P2
# Small dependency-free demo image for the optional PGM path.
16 16
255
0 16 32 48 64 80 96 112 128 144 160 176 192 208 224 240
16 32 48 64 80 96 112 128 144 160 176 192 208 224 240 255
32 48 64 80 96 112 128 144 160 176 192 208 224 240 255 240
48 64 80 96 112 128 144 160 176 192 208 224 240 255 240 224
64 80 96 112 128 144 160 176 192 208 224 240 255 240 224 208
80 96 112 128 144 160 176 192 208 224 240 255 240 224 208 192
96 112 128 144 160 176 192 208 224 240 255 240 224 208 192 176
112 128 144 160 176 192 208 224 240 255 240 224 208 192 176 160
128 144 160 176 192 208 224 240 255 240 224 208 192 176 160 144
144 160 176 192 208 224 240 255 240 224 208 192 176 160 144 128
160 176 192 208 224 240 255 240 224 208 192 176 160 144 128 112
176 192 208 224 240 255 240 224 208 192 176 160 144 128 112 96
192 208 224 240 255 240 224 208 192 176 160 144 128 112 96 80
208 224 240 255 240 224 208 192 176 160 144 128 112 96 80 64
224 240 255 240 224 208 192 176 160 144 128 112 96 80 64 48
240 255 240 224 208 192 176 160 144 128 112 96 80 64 48 32
